Numix/16/status/indicator-keyboard-Pt-9.svg

<?xml version="1.0" encoding="UTF-8" standalone="no"?>
<svg
   xmlns:dc="http://purl.org/dc/elements/1.1/"
   xmlns:cc="http://creativecommons.org/ns#"
   xmlns:rdf="http://www.w3.org/1999/02/22-rdf-syntax-ns#"
   xmlns:svg="http://www.w3.org/2000/svg"
   xmlns="http://www.w3.org/2000/svg"
   xmlns:sodipodi="http://sodipodi.sourceforge.net/DTD/sodipodi-0.dtd"
   xmlns:inkscape="http://www.inkscape.org/namespaces/inkscape"
   viewBox="0 0 16 16"
   id="svg2"
   version="1.1"
   inkscape:version="0.91 r13725"
   sodipodi:docname="indicator-keyboard-Pt-9.svg">
  <metadata
     id="metadata14">
    <rdf:RDF>
      <cc:Work
         rdf:about="">
        <dc:format>image/svg+xml</dc:format>
        <dc:type
           rdf:resource="http://purl.org/dc/dcmitype/StillImage" />
      </cc:Work>
    </rdf:RDF>
  </metadata>
  <defs
     id="defs12" />
  <sodipodi:namedview
     pagecolor="#ffffff"
     bordercolor="#666666"
     borderopacity="1"
     objecttolerance="10"
     gridtolerance="10"
     guidetolerance="10"
     inkscape:pageopacity="0"
     inkscape:pageshadow="2"
     inkscape:window-width="640"
     inkscape:window-height="480"
     id="namedview10"
     showgrid="false"
     inkscape:zoom="14.75"
     inkscape:cx="8"
     inkscape:cy="8"
     inkscape:window-x="65"
     inkscape:window-y="24"
     inkscape:window-maximized="0"
     inkscape:current-layer="svg2" />
  <path
     style="fill:#ececec;fill-opacity:1"
     d="M 1.5996094 0 C 0.71320937 2.9605947e-16 0 0.71320937 0 1.5996094 L 0 14.400391 C 2.9605947e-16 15.286791 0.71320937 16 1.5996094 16 L 14.400391 16 C 15.286791 16 16 15.286791 16 14.400391 L 16 1.5996094 C 16 0.71320937 15.286791 0 14.400391 0 L 1.5996094 0 z M 4.1425781 4.8046875 C 5.0245781 4.8046875 5.6832344 4.9725937 6.1152344 5.3085938 C 6.5472344 5.6445937 6.7617188 6.1222344 6.7617188 6.7402344 C 6.7617188 7.0942344 6.7002188 7.3964375 6.5742188 7.6484375 C 6.4482188 7.8944375 6.2672031 8.0959531 6.0332031 8.2519531 C 5.7992031 8.4019531 5.5119219 8.5139375 5.1699219 8.5859375 C 4.8339219 8.6519375 4.4533438 8.6835937 4.0273438 8.6835938 L 3.1796875 8.6835938 L 3.1796875 11.095703 L 2.5683594 11.095703 L 2.5683594 4.9765625 C 2.7843594 4.9165625 3.0362187 4.8736094 3.3242188 4.8496094 C 3.6182187 4.8196094 3.8905781 4.8046875 4.1425781 4.8046875 z M 8.4082031 4.9667969 L 8.4082031 6.4433594 L 10.261719 6.4433594 L 10.261719 6.9375 L 8.4082031 6.9375 L 8.4082031 9.4121094 C 8.4082031 9.6761094 8.4287031 9.8925467 8.4707031 10.060547 C 8.5187031 10.222547 8.5839688 10.349453 8.6679688 10.439453 C 8.7519687 10.529453 8.8546094 10.589141 8.9746094 10.619141 C 9.0946094 10.649141 9.2270938 10.664063 9.3710938 10.664062 C 9.6170937 10.664062 9.8148438 10.636031 9.9648438 10.582031 C 10.114843 10.522031 10.232406 10.469875 10.316406 10.421875 L 10.458984 10.90625 C 10.374984 10.96025 10.229531 11.023703 10.019531 11.095703 C 9.8095316 11.161703 9.5799844 11.195312 9.3339844 11.195312 C 9.0459844 11.195312 8.8034688 11.159891 8.6054688 11.087891 C 8.4134688 11.009891 8.2567187 10.894141 8.1367188 10.744141 C 8.0227187 10.588141 7.9425313 10.397922 7.8945312 10.169922 C 7.8465312 9.9419217 7.8222656 9.671375 7.8222656 9.359375 L 7.8222656 5.0742188 L 8.4082031 4.9667969 z M 4.1699219 5.3359375 C 3.9419219 5.3359375 3.7479375 5.3452813 3.5859375 5.3632812 C 3.4299375 5.3752813 3.2936875 5.3864375 3.1796875 5.3984375 L 3.1796875 8.1523438 L 3.9550781 8.1523438 C 4.2850781 8.1523438 4.5817031 8.1356094 4.8457031 8.0996094 C 5.1157031 8.0576094 5.3432969 7.9848125 5.5292969 7.8828125 C 5.7212969 7.7748125 5.8687031 7.6274062 5.9707031 7.4414062 C 6.0727031 7.2554062 6.1230469 7.0184688 6.1230469 6.7304688 C 6.1230469 6.4544687 6.067125 6.226875 5.953125 6.046875 C 5.845125 5.866875 5.6977187 5.7250469 5.5117188 5.6230469 C 5.3317188 5.5150469 5.124625 5.4404375 4.890625 5.3984375 C 4.656625 5.3564375 4.4159219 5.3359375 4.1699219 5.3359375 z M 12.132812 8.7539062 C 12.557913 8.7539062 12.879256 8.9047781 13.097656 9.2050781 C 13.319956 9.5014781 13.431641 9.9168718 13.431641 10.451172 C 13.431641 11.266272 13.235703 11.879569 12.845703 12.292969 C 12.455703 12.702469 11.887472 12.908203 11.138672 12.908203 L 11.126953 12.591797 C 11.384353 12.591797 11.619484 12.562406 11.833984 12.503906 C 12.048484 12.445406 12.234625 12.355275 12.390625 12.234375 C 12.550525 12.109575 12.679844 11.952819 12.777344 11.761719 C 12.878744 11.566719 12.945369 11.331594 12.980469 11.058594 C 12.875169 11.113194 12.749763 11.162178 12.601562 11.205078 C 12.453363 11.244078 12.294653 11.263672 12.126953 11.263672 C 11.908553 11.263672 11.722413 11.230363 11.570312 11.164062 C 11.418213 11.093863 11.296725 11.001772 11.203125 10.888672 C 11.109525 10.775572 11.040947 10.646247 10.998047 10.498047 C 10.955147 10.349847 10.933594 10.195056 10.933594 10.035156 C 10.933594 9.8869562 10.957106 9.7360844 11.003906 9.5839844 C 11.050706 9.4318844 11.123203 9.2966812 11.220703 9.1757812 C 11.322103 9.0509812 11.44555 8.9490938 11.59375 8.8710938 C 11.74585 8.7930937 11.926112 8.7539062 12.132812 8.7539062 z M 12.138672 9.0878906 C 11.994372 9.0878906 11.870931 9.1153219 11.769531 9.1699219 C 11.668131 9.2206219 11.587791 9.2892 11.525391 9.375 C 11.462991 9.4608 11.415966 9.5587751 11.384766 9.671875 C 11.357466 9.784975 11.34375 9.9025374 11.34375 10.023438 C 11.34375 10.331537 11.412328 10.560784 11.548828 10.708984 C 11.689228 10.857184 11.893009 10.929687 12.162109 10.929688 C 12.341509 10.929688 12.498259 10.910094 12.630859 10.871094 C 12.767359 10.828194 12.892766 10.781163 13.009766 10.726562 C 13.013699 10.679762 13.015625 10.634697 13.015625 10.591797 C 13.019492 10.548897 13.021484 10.499912 13.021484 10.445312 C 13.021484 10.262013 13.007769 10.087628 12.980469 9.9238281 C 12.957069 9.7600281 12.910044 9.6169874 12.839844 9.4921875 C 12.773544 9.3673875 12.685366 9.2694188 12.572266 9.1992188 C 12.459166 9.1251188 12.314172 9.0878906 12.138672 9.0878906 z "
     id="path4" />
</svg>

<svg xmlns="http://www.w3.org/2000/svg" viewBox="0 0 16 16">
 <path d="m 1.6 0 c -0.886 0 -1.6 0.713 -1.6 1.6 l 0 12.801 c 0 0.886 0.713 1.6 1.6 1.6 l 12.801 0 c 0.886 0 1.6 -0.713 1.6 -1.6 l 0 -12.801 c 0 -0.886 -0.713 -1.6 -1.6 -1.6 l -12.801 0 z m 2.543 4.805 c 0.882 0 1.541 0.168 1.973 0.504 c 0.432 0.336 0.646 0.814 0.646 1.432 c 0 0.354 -0.061 0.656 -0.188 0.908 c -0.126 0.246 -0.307 0.448 -0.541 0.604 c -0.234 0.15 -0.521 0.262 -0.863 0.334 c -0.336 0.066 -0.717 0.098 -1.143 0.098 l -0.848 0 l 0 2.412 l -0.611 0 l 0 -6.119 c 0.216 -0.06 0.468 -0.103 0.756 -0.127 c 0.294 -0.03 0.566 -0.045 0.818 -0.045 z m 4.266 0.162 l 0 1.477 l 1.854 0 l 0 0.494 l -1.854 0 l 0 2.475 c 0 0.264 0.021 0.48 0.063 0.648 c 0.048 0.162 0.113 0.289 0.197 0.379 c 0.084 0.09 0.187 0.15 0.307 0.18 c 0.12 0.03 0.252 0.045 0.396 0.045 c 0.246 0 0.444 -0.028 0.594 -0.082 c 0.15 -0.06 0.268 -0.112 0.352 -0.16 l 0.143 0.484 c -0.084 0.054 -0.229 0.117 -0.439 0.189 c -0.21 0.066 -0.44 0.1 -0.686 0.1 c -0.288 0 -0.531 -0.035 -0.729 -0.107 c -0.192 -0.078 -0.349 -0.194 -0.469 -0.344 c -0.114 -0.156 -0.194 -0.346 -0.242 -0.574 c -0.048 -0.228 -0.072 -0.499 -0.072 -0.811 l 0 -4.285 l 0.586 -0.107 z m -4.238 0.369 c -0.228 0 -0.422 0.009 -0.584 0.027 c -0.156 0.012 -0.292 0.023 -0.406 0.035 l 0 2.754 l 0.775 0 c 0.33 0 0.627 -0.017 0.891 -0.053 c 0.27 -0.042 0.498 -0.115 0.684 -0.217 c 0.192 -0.108 0.339 -0.255 0.441 -0.441 c 0.102 -0.186 0.152 -0.423 0.152 -0.711 c 0 -0.276 -0.056 -0.504 -0.17 -0.684 c -0.108 -0.18 -0.255 -0.322 -0.441 -0.424 c -0.18 -0.108 -0.387 -0.183 -0.621 -0.225 c -0.234 -0.042 -0.475 -0.063 -0.721 -0.063 z m 7.963 3.418 c 0.425 0 0.746 0.151 0.965 0.451 c 0.222 0.296 0.334 0.712 0.334 1.246 c 0 0.815 -0.196 1.428 -0.586 1.842 c -0.39 0.41 -0.958 0.615 -1.707 0.615 l -0.012 -0.316 c 0.257 0 0.493 -0.029 0.707 -0.088 c 0.215 -0.059 0.401 -0.149 0.557 -0.27 c 0.16 -0.125 0.289 -0.282 0.387 -0.473 c 0.101 -0.195 0.168 -0.43 0.203 -0.703 c -0.105 0.055 -0.231 0.104 -0.379 0.146 c -0.148 0.039 -0.307 0.059 -0.475 0.059 c -0.218 0 -0.405 -0.033 -0.557 -0.1 c -0.152 -0.07 -0.274 -0.162 -0.367 -0.275 c -0.094 -0.113 -0.162 -0.242 -0.205 -0.391 c -0.043 -0.148 -0.064 -0.303 -0.064 -0.463 c 0 -0.148 0.024 -0.299 0.07 -0.451 c 0.047 -0.152 0.119 -0.287 0.217 -0.408 c 0.101 -0.125 0.225 -0.227 0.373 -0.305 c 0.152 -0.078 0.332 -0.117 0.539 -0.117 z m 0.006 0.334 c -0.144 0 -0.268 0.027 -0.369 0.082 c -0.101 0.051 -0.182 0.119 -0.244 0.205 c -0.062 0.086 -0.109 0.184 -0.141 0.297 c -0.027 0.113 -0.041 0.231 -0.041 0.352 c 0 0.308 0.069 0.537 0.205 0.686 c 0.14 0.148 0.344 0.221 0.613 0.221 c 0.179 0 0.336 -0.02 0.469 -0.059 c 0.137 -0.043 0.262 -0.09 0.379 -0.145 c 0.004 -0.047 0.006 -0.092 0.006 -0.135 c 0.004 -0.043 0.006 -0.092 0.006 -0.146 c 0 -0.183 -0.014 -0.358 -0.041 -0.521 c -0.023 -0.164 -0.07 -0.307 -0.141 -0.432 c -0.066 -0.125 -0.154 -0.223 -0.268 -0.293 c -0.113 -0.074 -0.258 -0.111 -0.434 -0.111 z" style="fill:#ececec;fill-opacity:1"/>
</svg>
